assets/icons/folder_icons/folder-tests.svg

<?xml version="1.0" encoding="UTF-8"?><svg id="Done" xmlns="http://www.w3.org/2000/svg" xmlns:xlink="http://www.w3.org/1999/xlink" viewBox="0 0 14 14"><defs><style>.cls-1{fill:#e5e5e5;stroke:#003768;stroke-miterlimit:10;stroke-width:.0026px;}.cls-1,.cls-2,.cls-3{fill-rule:evenodd;}.cls-4{fill:#40a0ff;}.cls-5{fill:url(#linear-gradient);isolation:isolate;opacity:.723;}.cls-2{fill:red;}.cls-3{fill:#c92d00;}</style><linearGradient id="linear-gradient" x1="840.8608" y1="-1062.0094" x2="840.8608" y2="-1058.0094" gradientTransform="translate(-417.4304 -529.0047) scale(.5 -.5)" gradientUnits="userSpaceOnUse"><stop offset="0" stop-color="#000"/><stop offset="1" stop-color="#000" stop-opacity=".151"/></linearGradient></defs><g id="Layer_3"><g id="g438"><path id="path427" class="cls-4" d="m1,0C.5286,0,0,.5286,0,1v7c0,.4714.5286,1,1,1h10c.4714,0,1-.5286,1-1V2c0-.4714-.5286-1-1-1h-5c0-.4714-.5286-1-1-1H1Z"/><path id="path438" class="cls-5" d="m1,0C.5286,0,0,.5286,0,1s.5286,1,1,1h4c.4714,0,1-.5286,1-1S5.4714,0,5,0H1Z"/></g><g id="g389"><path id="path390" d="m4,3v3h1l-1,1v6s0,1,1,1h8c1,0,1-1,1-1v-6l-1-1h1v-3H4Z"/><path id="path387" class="cls-1" d="m5,13v-5s.9893-1.015,1-1v-2h-1v-1h8v1h-1v2l1,1v5H5Z"/><path id="path389" class="cls-3" d="m7,5.9953c2-2,2,2,4,0v1.0047l1,2v3h-6v-3l1-2v-1.0047Z"/><path id="path625" class="cls-2" d="m7,5.9953c2-2,2,2,4,0v1.0047l1,2v3h-6v-3l1-2v-1.0047Z"/></g></g></svg>

<svg xmlns="http://www.w3.org/2000/svg" viewBox="0 0 14 14"><defs><linearGradient id="a" x1="840.861" x2="840.861" y1="-1062.009" y2="-1058.009" gradientTransform="matrix(.5 0 0 -.5 -417.43 -529.005)" gradientUnits="userSpaceOnUse"><stop offset="0"/><stop offset="1" stop-opacity=".151"/></linearGradient></defs><path fill="#40a0ff" d="M1 0C.529 0 0 .529 0 1v7c0 .471.529 1 1 1h10c.471 0 1-.529 1-1V2c0-.471-.529-1-1-1H6c0-.471-.529-1-1-1z"/><path fill="url(#a)" d="M1 0C.529 0 0 .529 0 1s.529 1 1 1h4c.471 0 1-.529 1-1s-.529-1-1-1z" opacity=".723" style="isolation:isolate"/><path d="M4 3v3h1L4 7v6s0 1 1 1h8c1 0 1-1 1-1V7l-1-1h1V3z"/><path fill="#e5e5e5" fill-rule="evenodd" stroke="#003768" stroke-miterlimit="10" stroke-width=".003" d="M5 13V8s.99-1.015 1-1V5H5V4h8v1h-1v2l1 1v5z"/><path fill="#c92d00" fill-rule="evenodd" d="M7 5.995c2-2 2 2 4 0V7l1 2v3H6V9l1-2z"/><path fill="red" fill-rule="evenodd" d="M7 5.995c2-2 2 2 4 0V7l1 2v3H6V9l1-2z"/></svg>
